X: 4207
M: 6/8
L: 1/8
K: G
|:\
{DEF}G2B d2B | e2c A3 | BdB GBG | FAF D3 |\
{DEF}G2B d2B | e2c ABc | dBG DGF | G3- G2z :|
|:\
ede cde | def gfe | dBG DGF | G3- G2z :|


